!!!COM: Ce/cile Chaminade
!!!CNT: Francais
!!!TXO: Francais
!!!OTL: "Sur la plage"
!!!LYR: Guinand, Edouard
!!!ENC: Amanda Harris
!!!YOR: Album of Songs, Volume 1
!!!YOR: Da Capo Press
!!!ODT: 1892/
!!NB: Vocal melody and text encoded
**kern	**silbe
*clefG2	*
*k[b-e-]	*
*M3/4	*
*MM[76]	*
=3	=3
4r	.
4r	.
{4d	{La
=4	=4
8g	va-
8a	-gue
4b-	vient
4dd	sans
=5	=5
4cc#	ces-
2g	-se
=6	=6
8g	ap-
8a	-por-
4b-	-ter
8dd	au
8dd	ri-
=7	=7
[2gg	-va-
8gg]}	-ge}
{8g	{Son
=8	=8
8a	dou-
8a	-leu-
8b-	-reux
8b-	ge/-
8cc	-mis-
8cc	-se-
=9	=9
[2.a	-ment,
=10	=10
2.a_	|
=11	=11
4a]}	|}
4r	.
{4dd	{Et
=12	=12
4.ff	sem-
8f	-ble,
8f	que
8f	le
=13	=13
2en	ciel
4e-	soit
=14	=14
4ee-	sombre
4e-	ou
8e-	sans
8e-	nu-
=15	=15
4e-	-a-
4d}	-ge,}
{4c	{Con-
=16	=16
4b-	-ter
4d	son
8b-	e/-
8c	-ter-
=17	=17
4A	-nel
4d	|
8A	tour-
8d	|
=18	=18
[2.G	-ment.
=19	=19
4G]}	|}
4r	.
{8g	{Au
8g	de/-
=20	=20
2b-	-clin
8a	du
8a	so-
=21	=21
2d	-leil,
8d	au
8d	le-
=22	=22
2dd	-ver
8cc#	de
8cc#	l'au-
=23	=23
2a	-ro-
4a	-re,
=24	=24
8g#	Com-
8a	-me
8g#	dans
8d	la
4a	nuit
=25	=25
8g#	sans
8d	lu-
4.gn}	-eur.}
{8d	{Pai-
=26	=26
2f	-sible
12f	ou
12a	mena-
12dd	|
=27	=27
4ff	-c5an-
4dd-	|
4ccn	-te,
=28	=28
4bn	el-
8bn	-le
8bn	sou-
8bn	-pire
8bn	en-
=29	=29
2cc	-co-
4cc#}	-re}
=30	=30
{4.dd	{Son
8a	in-
8f	-con-
8d	-so-
=31	=31
2f	-la-
8en	-ble
8d	dou-
=32	=32
[2.d	-leur!
=33	=33
2.d_	|
=34	=34
4d]}	|}
4r	.
4r	.
=35	=35
4r	.
4r	.
{4d	{De-
=36	=36
8g	-puis
8a	l'in-
4b-	-stant
4dd	cru-
=37	=37
4cc#	-el
2g	|
=38	=38
8g	ou\
8a	tu
4b-	m'as
8dd	de/-
8dd	-lais-
=39	=39
[2gg	-se/-
8gg]}	-e,}
{8g	{Il
=40	=40
8a	ne
8a	se
8b-	pas-
8b-	-se
8cc	plus
8cc	un
=41	=41
[2.a	jour,
=42	=42
2.a_	|
=43	=43
8a]}	|}
8r	.
8r	.
{8dd	{Sans
8dd	que
8dd	s'ex-
=44	=44
2ff	-ha-
4f	-le aus-
=45	=45
2en	-si
8en	de
8en	mon
=46	=46
4ee-	a^-
4.e-	-me
8e-	bles-
=47	=47
4e-	-se/-
4d}	-e}
{4c	{La
=48	=48
4B-	plain-
4d	-te
8B-	de
8c	mon
=49	=49
4A	tris-
4d	|
8A	-te a-
8B-	|
=50	=50
[2.G	-mour!
=51	=51
2G]}	|}
4r	.
*-	*-
